X:2
T:2 Cujus animam gementem
T:Canto solo
M:3/8
L:1/8
%%staves s {1 2 3}
Q:"Andante amoroso"
K:Cm
% (9)
V:s name=Sopran dyn=up
z3|z3|z3|z3|z3|z3|z3|
V:1 name="Str.\nBc."
wcd2|wef2|wga2|w[D=B]w[Ec]z|w_Bc2|w_de2|wf_g2|
V:2
!dolce!E2D|C2=B,|G2C|!forte!x3|!dolce!_D2C|B,2=A,|F2B,|
V:3
C,2=B,,|C,2D,|E,2F,|wF,wE,z|_B,,2=A,,|B,,2C,|_D,2E,|
V:s		% M8
z3|z3|z3|z3|z3|z3|z3|z3|
V:1
w[C=A]w[_DB]z|B/c/_dd|c/B/Az|f/g/aa|[D=B]3|w[Gc]([=Bf][ce])|w[ce]w[=Bd]z|{a}Tg3|
V:2
!forte!x3|!dolce!E3-|E2G|!forte!A2c|x3|x3|x3|!forte!=B3|
V:3
wE,w_D,z|=G,3|A,CB,|A,3-|A,G,F,|E,D,C,|G,2z|zwG,wF,|
V:s		% M16
z3|z3|z3|z3|z3|z3|z3|z3|
V:1
{a}Tg3|{a}Tg3|{a}Tg3|(^f3|=f3)|(e=Bc)|d/f/e=B|{=B}c2z|
V:2
c3|=B3|c3|!dolce!x3|x3|!forte!x3|FGx|z!dolce!AE|
V:3
wE,wD,wC,|G,,G,F,|E,D,C,|z[D,D][C,C]|[=B,,=B,][=A,,=A,][G,,G,]|[C,C][D,D][E,E]|F,G,[G,,G,]|zA,E,|
V:s		% M24
z3|z3|z3|z3|!dolce!wcd2|wef2|wga2|!forte!w=B wcz|
w:Cu-jus a-ni-mam ge-men-tem
V:1
!dolcea!(d/f/e)w=B|c2z|!forte!d/f/ed|cCz|wcd2|wef2|wga2|w[D=B]w[Ec]z|
V:2
F2G|z!forte!AE|FGx|x3|!dolce!E2D|C2=B,|G,2C|!forte!x3|
V:3
F,2G,|zA,E,|F,G,[G,,G,]|[C,C]2z|C,2=B,,|C,2D,|E,2F,|wF,wE,z|
% (10)
V:s		% M32
!dolce!w_Bc2|w_de2|wf_g2|!forte!=A Bz|!dolce!B/c/_d2|c/B/ Az|!forte!f {e}T_d2|
w:con-tris-ta-tam ac do-len-tem per -trans-i -vit, per-trans-
V:1
_Bc2|_de2|f_g2|w[C=A]w[_DB]z|B/c/_dd|c/B/A2|f{e}T_d2|
V:2
!dolce!_D2C|B,2=A,|F,2B,|!forte!x3|!dolce!E3-|E2c-|!forte!cB2-|
V:3
_B,,2=A,,|B,,2C,|_D,2E,|wE,w_D,z|G,3|A,CA,|_D2B,|
V:s		% M39
e {_d}Tc2|(B/c/_d) c|B2z|B_d2|c (eA)|B_d2|c (eA)|
w:i-vit gla --di-us, cu-jus a-ni -mam ge-men-tem_
V:1
e{_d}Tc2|B/c/_dc|[EB]2z|w[GB][G_d]2|wc (eA)|[GB][G_d]2|wc (eA)|
V:2
BA2|GEE|x3|E3-|[E-A]3|E3-|[E-A]3|
V:3
C2A,|B,G,A,|E,2z|E,2E,|E,3|E,2E,|E,3|
V:s		% M46
B_d2|c (eA)|B (_dc)|c Bz|!dolce!=d3|_d3|(cB) !forte!A|
w:con-tris-ta-tam_ ac do -len-tem per-trans-i -vit
V:1
[GB][G_d]2|c (eA)|[GB][B_d][Ac]|[Ac][GB]z|(=d3|_d3)|cBA|
V:2
E3-|[E-A]3|Ex2|x3|!dolce!x3|x3|x2!forte!x|
V:3
E,2E,|E,3|E[E,E][A,E]|[E,E]2z|zB,A,|G,F,E,|A,B,C|
V:s		% M53
(B/_d/c) G|A2z|!dolce!=d3|_d3|!forte!(cB) A|F/B/{A}G2|A2z|z3|
w:gla --di-us, per-trans-i -vit gla -di-us.
V:1
B/_d/cG|AG,A,|(=d3|_d3)|cBA|F/B/{A}G2|Aa2|B/_d/cG|
V:2
x3|x3|!dolce!x3|x3|!forte!x3|x3|!forte!x3|!dolce!x3|
V:3
_D,E,E,,|A,,B,,C,|zB,A,|G,F,E,|A,,B,,C,|_D,E,E,,|A,,2C,|_D,E,2|
% (11)
V:s		% M61
z3|z3|z3|!dolce!e3|e3|(e=A) B|c_d e|!forte!w_d wcz|
w:Cu-jus a -ni-mam_ ge-men-tem
V:1
Aa2|B/_d/cG|AA,z|[(,ce-]3|[B)e]3|([=Ae][FA][GB]|c_de)|w[B_d]w[=Ac]z|
V:2
x!forte!x2|!dolce!x3|x3|!dolce!x3|x3|x3|=A3|!forte!x3|
V:3
zF,C,|_D,E,E,,|A,2z|zA,A,|z_G,G,|F,3-|F,3|w=E,wF,z|
V:s		% M69
!dolce!f3|f3|(f=B) c|de f|!forte!e dz|!forte!Tg3|Tg3|Tg3|
w:con-tris-ta -tam ac_ do-len-tem per-trans-i-
V:1
[(,_df-]3|[c)f]3|([=Bf][GB][=Ac]|def)|w[ce]w[=Bd]z|Tg3|Tg3|Tg3|
V:2
!dolce!x3|x3|x3|=B3|!forte!x3|!forte![=Bd]3|[ce]3|[=Bd]3|
V:3
zB,B,|z_A,A,|G,3-|G,3|w^F,wG,z|zG,=F,|E,D,C,|G,,G,F,|
V:s		% M77
Tg3|!dolce!^f3|=f3|(e!forte!d) c|f/d/{c}=B2|c2z|!sottov!cc2|_dd2|
w:vit, per-trans-i -vit gla -di-us, cu-jus a-ni-
V:1
Tg3|(^f3|=f3)|edc|f/d/{c}=B2|c2z|cc2|_dd2|
V:2
[ce]3|!dolce!x3|x3|x2!forte!x|FGx|x3|!sottov![=Ec]2E|[Fc]2[Fc]|
V:3
E,D,C,|z[D,D][C,C]|[=B,,=B,][=A,,=A,][G,,G,]|[C,C][D,D][E,E]|F,G,[G,,G,]|[C,C]2z|C,3-|C,3-|
V:s		% M85
=ee2|ff2|a=B2|cc2|ee2|e dz|!forte!Tg3|Tg3|
w:mam ge-men-tem con-tris-ta-tam ac do-len-tem per-trans-
V:1
=ee2|ff2|a=B2|cc2|ee2|w[ce]w[=Bd]z|Tg3|Tg3|
V:2
[GB]2[GB]|[CA]2[CA]|A2[FA]|[EG]2[EG]|[^Fc]2[Fc]|G2x|!forte![=Bd]3|[ce]3|
V:3
C,3-|C,3-|C,3-|C,3|^F,2F,|wG,wG,,z|zG,F,|E,D,C,|
% (12)
V:s		% M93
Tg3|Tg3|!dolce!^f3|=f3|(!forte!ed) c|d/f/e =B|c2z|!dolce!^f3|
w:i-vit, per-trans-i -vit gla --di-us, per-
V:1
Tg3|Tg3|(^f3|=f3)|edc|d/f/e=B|c=B,C|(^f3|
V:2
[=Bd]3|[ce]3|!dolce!x3|x3|!forte!x3|FGx|x3|!dolce!x3|
V:3
G,,G,F,|E,D,C,|z[D,D][C,C]|[=B,,=B,][=A,,=A,][G,,G,]|[C,C][D,D][E,E]|F,G,[G,,G,]|[C,C]D,E,|z[D,D][C,C]|
V:s		% M101
=f3|(!forte!ed) c|(d/f/e) =B|c2z|z3|z3|z3|Hz3|]
w:trans-i -vit gla --di-us.
V:1
=f3)|edc|d/f/e=B|cc'2|d/f/e=B|cc'2|d/f/e=B|cCHz|]
V:2
x3|!forte!x3|FGx|!forte!x3|!dolce!F2G|z!forte!AE|!dolce!FGx|x3|]
V:3
[=B,,=B,][=A,,=A,][G,,G,]|[C,C][D,D][E,E]|F,G,[G,,G,]|[C,C]2[E,E]|F,2G,|zA,E,|F,G,[G,,G,]|[C,C]2Hz|]

